img/envelope-at-fill.svg

<svg width="32" height="32" viewBox="0 0 32 32" fill="none" xmlns="http://www.w3.org/2000/svg">
<path d="M4 4C3.09377 3.99994 2.21438 4.30761 1.50584 4.87262C0.797311 5.43763 0.301636 6.22649 0.1 7.11L16 16.828L31.9 7.11C31.6984 6.22649 31.2027 5.43763 30.4942 4.87262C29.7856 4.30761 28.9062 3.99994 28 4H4ZM0 23.6V9.396L11.606 16.488L0 23.6ZM13.522 17.66L0.382 25.712C0.706367 26.3969 1.21864 26.9756 1.85918 27.3807C2.49971 27.7858 3.24213 28.0005 4 28H16.512C16.172 27.0364 15.9989 26.0218 16 25C15.9986 23.6862 16.2856 22.3881 16.8405 21.1973C17.3955 20.0064 18.205 18.9519 19.212 18.108L18.478 17.658L16 19.172L13.522 17.66ZM32 19.342V9.394L20.394 16.486L21.07 16.902C22.2945 16.3068 23.6385 15.9983 25 16C27.828 16 30.35 17.304 32 19.342Z" fill="url(#paint0_linear_177_257)"/>
<path d="M31.668 24.488C31.668 26.824 30.514 28.538 28.494 28.538C27.488 28.538 26.49 28.082 26.254 27.242H26.168C25.932 28.074 25.082 28.528 24.138 28.528C22.598 28.528 21.62 27.444 21.62 25.66V24.602C21.62 22.914 22.582 21.802 24.14 21.802C25.31 21.802 25.88 22.468 26.046 23.062H26.106V21.926H27.916V26.306C27.916 26.85 28.276 27.146 28.738 27.146C29.368 27.146 30.016 26.316 30.016 24.366V24.13C30.016 21.576 28.116 19.478 25.048 19.478H24.968C21.804 19.478 19.688 21.612 19.688 24.926V25.24C19.688 28.974 22.162 30.548 24.828 30.548H24.918C25.932 30.548 26.788 30.408 27.278 30.188V31.65C26.84 31.85 25.992 32 24.804 32H24.716C20.876 32 18 29.64 18 25.292V24.864C18 20.72 20.842 18 24.97 18H25.04C29.28 18 31.668 20.86 31.668 24.068V24.488ZM23.588 24.908V25.362C23.588 26.534 24.042 26.962 24.75 26.962C25.37 26.962 25.878 26.622 25.878 25.476V24.742C25.878 23.71 25.328 23.326 24.734 23.326C24.042 23.326 23.588 23.816 23.588 24.908Z" fill="url(#paint1_linear_177_257)"/>
<defs>
<linearGradient id="paint0_linear_177_257" x1="16" y1="4" x2="16" y2="28" gradientUnits="userSpaceOnUse">
<stop stop-color="#F3D535"/>
<stop offset="1" stop-color="#D09600"/>
</linearGradient>
<linearGradient id="paint1_linear_177_257" x1="24.834" y1="18" x2="24.834" y2="32" gradientUnits="userSpaceOnUse">
<stop stop-color="#F3D535"/>
<stop offset="1" stop-color="#D09600"/>
</linearGradient>
</defs>
</svg>

<svg xmlns="http://www.w3.org/2000/svg" width="32" height="32" fill="none"><path fill="url(#a)" d="M4 4A4 4 0 0 0 .1 7.11L16 16.828 31.9 7.11A4 4 0 0 0 28 4H4ZM0 23.6V9.396l11.606 7.092L0 23.6Zm13.522-5.94L.382 25.712A4 4 0 0 0 4 28h12.512A8.987 8.987 0 0 1 16 25a8.98 8.98 0 0 1 3.212-6.892l-.734-.45L16 19.172l-2.478-1.512ZM32 19.342V9.394l-11.606 7.092.676.416A8.964 8.964 0 0 1 25 16a8.984 8.984 0 0 1 7 3.342Z"/><path fill="url(#b)" d="M31.668 24.488c0 2.336-1.154 4.05-3.174 4.05-1.006 0-2.004-.456-2.24-1.296h-.086c-.236.832-1.086 1.286-2.03 1.286-1.54 0-2.518-1.084-2.518-2.868v-1.058c0-1.688.962-2.8 2.52-2.8 1.17 0 1.74.666 1.906 1.26h.06v-1.136h1.81v4.38c0 .544.36.84.822.84.63 0 1.278-.83 1.278-2.78v-.236c0-2.554-1.9-4.652-4.968-4.652h-.08c-3.164 0-5.28 2.134-5.28 5.448v.314c0 3.734 2.474 5.308 5.14 5.308h.09c1.014 0 1.87-.14 2.36-.36v1.462c-.438.2-1.286.35-2.474.35h-.088C20.876 32 18 29.64 18 25.292v-.428C18 20.72 20.842 18 24.97 18h.07c4.24 0 6.628 2.86 6.628 6.068v.42Zm-8.08.42v.454c0 1.172.454 1.6 1.162 1.6.62 0 1.128-.34 1.128-1.486v-.734c0-1.032-.55-1.416-1.144-1.416-.692 0-1.146.49-1.146 1.582Z"/><defs><linearGradient id="a" x1="16" x2="16" y1="4" y2="28" gradientUnits="userSpaceOnUse"><stop stop-color="#F3D535"/><stop offset="1" stop-color="#D09600"/></linearGradient><linearGradient id="b" x1="24.834" x2="24.834" y1="18" y2="32" gradientUnits="userSpaceOnUse"><stop stop-color="#F3D535"/><stop offset="1" stop-color="#D09600"/></linearGradient></defs></svg>
